flaticon/technology/mouse-1.svg

<svg xmlns="http://www.w3.org/2000/svg" width="32" height="32" viewBox="0 0 24 24">
    <path d="M 12 0 C 8.140625 0 5 3.140625 5 7 L 5 17.078125 C 5 20.960938 7.988281 24 11.800781 24 C 15.769531 24 19 20.894531 19 17.078125 L 19 7 C 19 3.140625 15.859375 0 12 0 Z M 18.199219 17.078125 C 18.199219 20.398438 15.269531 23.199219 11.800781 23.199219 C 8.4375 23.199219 5.800781 20.511719 5.800781 17.078125 L 5.800781 7 C 5.800781 3.582031 8.582031 0.800781 12 0.800781 C 15.417969 0.800781 18.199219 3.582031 18.199219 7 Z M 18.199219 17.078125"/>
    <path d="M 12 1.199219 C 9.1875 1.199219 6.839844 3.210938 6.3125 5.871094 L 6.304688 5.871094 L 6.257812 6.230469 C 6.257812 6.230469 6.257812 6.230469 6.257812 6.234375 C 6.242188 6.339844 6.230469 6.445312 6.222656 6.554688 C 6.207031 6.707031 6.199219 6.859375 6.199219 7 L 6.199219 17.078125 C 6.199219 20.289062 8.660156 22.800781 11.800781 22.800781 C 15.050781 22.800781 17.800781 20.179688 17.800781 17.078125 L 17.800781 7 C 17.800781 6.859375 17.792969 6.707031 17.777344 6.554688 C 17.769531 6.445312 17.757812 6.339844 17.742188 6.234375 C 17.742188 6.234375 17.742188 6.230469 17.742188 6.230469 L 17.695312 5.871094 L 17.6875 5.871094 C 17.160156 3.210938 14.8125 1.199219 12 1.199219 Z M 17 7 L 17 11.574219 C 16.222656 11.320312 15.640625 10.332031 15.640625 9.160156 C 15.640625 8.003906 16.21875 7.019531 16.988281 6.753906 C 16.992188 6.835938 17 6.917969 17 7 Z M 7.011719 6.753906 C 7.78125 7.019531 8.359375 8.003906 8.359375 9.160156 C 8.359375 10.332031 7.777344 11.320312 7 11.574219 L 7 7 C 7 6.917969 7.007812 6.835938 7.011719 6.753906 Z M 11.800781 22 C 9.0625 22 7 19.886719 7 17.078125 L 7 12.394531 C 8.222656 12.148438 9.160156 10.792969 9.160156 9.160156 C 9.160156 7.5625 8.289062 6.25 7.113281 5.949219 C 7.597656 3.695312 9.601562 2 12 2 C 14.398438 2 16.402344 3.695312 16.886719 5.949219 C 15.710938 6.25 14.839844 7.566406 14.839844 9.160156 C 14.839844 10.792969 15.777344 12.148438 17 12.394531 L 17 17.078125 C 17 19.746094 14.617188 22 11.800781 22 Z M 11.800781 22"/>
    <path d="M12.179688 8.121094C12.898438 8.121094 13.480469 7.535156 13.480469 6.820312 13.480469 6.101562 12.898438 5.519531 12.179688 5.519531 11.464844 5.519531 10.878906 6.101562 10.878906 6.820312 10.878906 7.535156 11.464844 8.121094 12.179688 8.121094zM12.179688 6.320312C12.457031 6.320312 12.679688 6.542969 12.679688 6.820312 12.679688 7.09375 12.457031 7.320312 12.179688 7.320312 11.90625 7.320312 11.679688 7.09375 11.679688 6.820312 11.679688 6.542969 11.90625 6.320312 12.179688 6.320312zM12.953125 17.226562C12.894531 17.210938 12.828125 17.179688 12.761719 17.128906L12.757812 17.128906C12.628906 17.035156 12.542969 16.90625 12.53125 16.777344 12.527344 16.738281 12.527344 16.699219 12.53125 16.660156 12.570312 16.378906 12.457031 16.105469 12.230469 15.929688 12.011719 15.753906 11.726562 15.707031 11.472656 15.804688 11.199219 15.90625 10.9375 16.089844 10.671875 16.363281 10.363281 16.683594 10.195312 17.085938 10.199219 17.5 10.207031 18.472656 11.003906 19.261719 11.976562 19.261719 12.578125 19.261719 13.132812 18.957031 13.460938 18.449219 13.601562 18.230469 13.625 17.972656 13.53125 17.734375 13.433594 17.484375 13.21875 17.296875 12.953125 17.226562zM11.976562 18.460938C11.441406 18.460938 11.003906 18.027344 11 17.496094 11 17.289062 11.085938 17.085938 11.246094 16.917969 11.425781 16.734375 11.59375 16.609375 11.738281 16.554688 11.726562 16.65625 11.722656 16.761719 11.734375 16.863281 11.773438 17.21875 11.976562 17.550781 12.289062 17.777344 12.4375 17.886719 12.59375 17.960938 12.753906 18.003906 12.773438 18.007812 12.78125 18.019531 12.785156 18.019531 12.609375 18.296875 12.304688 18.460938 11.976562 18.460938zM11.976562 18.460938"/>
</svg>

<svg xmlns="http://www.w3.org/2000/svg" width="32" height="32" viewBox="0 0 24 24">
    <path d="M12 0C8.14 0 5 3.14 5 7v10.078C5 20.961 7.988 24 11.8 24c3.97 0 7.2-3.105 7.2-6.922V7c0-3.86-3.14-7-7-7zm6.2 17.078c0 3.32-2.93 6.121-6.4 6.121-3.363 0-6-2.687-6-6.12V7C5.8 3.582 8.583.8 12 .8s6.2 2.782 6.2 6.2zm0 0"/>
    <path d="M12 1.2c-2.813 0-5.16 2.01-5.688 4.671h-.007l-.047.36v.003c-.016.106-.028.211-.035.32A4.423 4.423 0 0 0 6.199 7v10.078c0 3.211 2.461 5.723 5.602 5.723 3.25 0 6-2.621 6-5.723V7c0-.14-.008-.293-.024-.445a4.227 4.227 0 0 0-.035-.32V6.23l-.047-.359h-.008C17.16 3.211 14.813 1.2 12 1.2zM17 7v4.574c-.777-.254-1.36-1.242-1.36-2.414 0-1.156.579-2.14 1.348-2.406.004.082.012.164.012.246zm-9.988-.246c.77.266 1.347 1.25 1.347 2.406 0 1.172-.582 2.16-1.359 2.414V7c0-.082.008-.164.012-.246zM11.8 22C9.062 22 7 19.887 7 17.078v-4.683c1.223-.247 2.16-1.602 2.16-3.235 0-1.598-.87-2.91-2.047-3.21A5.005 5.005 0 0 1 12 2a5.005 5.005 0 0 1 4.887 3.95c-1.176.3-2.047 1.616-2.047 3.21 0 1.633.937 2.988 2.16 3.235v4.683C17 19.746 14.617 22 11.8 22zm0 0"/>
    <path d="M12.18 8.121a1.3 1.3 0 1 0 0-2.602 1.3 1.3 0 0 0 0 2.602zm0-1.8a.501.501 0 1 1-.5.5c0-.278.226-.5.5-.5zm0 0M12.953 17.227a.556.556 0 0 1-.191-.098h-.004a.516.516 0 0 1-.227-.352.587.587 0 0 1 0-.117.781.781 0 0 0-.3-.73.765.765 0 0 0-.758-.125c-.274.101-.536.285-.801.558-.309.32-.477.723-.473 1.137a1.78 1.78 0 0 0 1.778 1.762c.601 0 1.156-.305 1.484-.813a.775.775 0 0 0 .07-.715.849.849 0 0 0-.578-.507zm-.976 1.234a.977.977 0 0 1-.977-.965c0-.207.086-.41.246-.578.18-.184.348-.309.492-.363a1.36 1.36 0 0 0-.004.308c.04.356.243.688.555.914.149.11.305.184.465.227.02.004.027.016.031.016a.953.953 0 0 1-.808.44zm0 0"/>
</svg>
